brandFactory_export/3.Masa/Learndata_3Masa.svg

<?xml version="1.0" encoding="UTF-8"?>
<svg width="24px" height="24px" viewBox="0 0 24 24" version="1.1" xmlns="http://www.w3.org/2000/svg" xmlns:xlink="http://www.w3.org/1999/xlink">
    <title>3.Masa/Learndata_3Masa</title>
    <g id="Symbols" stroke="none" stroke-width="1" fill="none" fill-rule="evenodd">
        <g id="3.Masa/Learndata_3Masa" fill="#5CB615" fill-rule="nonzero">
            <path d="M7.71764706,2.37310924 C7.71764706,2.36302521 7.71764706,2.36302521 7.70756303,2.35294118 C7.93613445,1.69747899 8.78319328,1.11932773 10.1680672,0.68907563 C11.6403361,0.248739496 13.5932773,0 15.6537815,0 C17.7243697,0 19.6638655,0.248739496 21.1294118,0.68907563 C22.5915966,1.13613445 23.4184874,1.71428571 23.5966387,2.4 C23.5966387,2.4 23.5865546,2.41008403 23.5865546,2.42016807 C23.3378151,3.05546218 22.5008403,3.60672269 21.1361345,4.01344538 C19.6638655,4.46386555 17.7310924,4.70252101 15.6605042,4.70252101 C13.6,4.70252101 11.6571429,4.46386555 10.1848739,4.01344538 C8.79327731,3.59663866 7.94621849,3.02857143 7.71764706,2.37310924 L7.71764706,2.37310924 Z M8.09747899,15.0857143 L14.6588235,12.1579832 L14.4605042,12.0672269 L14.4504202,12.0672269 L11.005042,10.5411765 L8.07731092,9.25714286 L8.06722689,9.26722689 L1.51596639,12.1848739 L7.64705882,14.8840336 L8.09747899,15.0857143 L8.09747899,15.0857143 Z M12.487395,16.9781513 L12.5378151,14.7361345 L9.09243697,16.2689076 L8.68571429,16.4504202 C8.49411765,16.5411765 8.28571429,16.5815126 8.08739496,16.5815126 C7.8789916,16.5815126 7.68067227,16.5411765 7.48235294,16.4504202 L3.74789916,14.7865546 L3.74789916,16.9109244 C4.04705882,16.9815126 4.37647059,17.0588235 4.71260504,17.1596639 C5.17983193,17.2907563 5.67731092,17.4588235 6.17478992,17.6672269 C6.68235294,17.8890756 7.18991597,18.1445378 7.65042017,18.4638655 C7.70084034,18.5042017 7.74789916,18.5210084 7.80840336,18.5647059 C7.85882353,18.594958 7.9092437,18.6252101 7.95630252,18.6655462 C8.07731092,18.7563025 8.23529412,18.7563025 8.34621849,18.6655462 C8.61512605,18.4571429 8.90420168,18.2756303 9.20336134,18.1176471 C9.44201681,17.9865546 9.6907563,17.8588235 9.94957983,17.7478992 C10.6151261,17.4588235 11.3042017,17.2403361 11.9092437,17.0991597 C11.9394958,17.0890756 11.9596639,17.0890756 11.989916,17.0890756 C12.0705882,17.0689076 12.1579832,17.0487395 12.2487395,17.0285714 C12.3260504,17.0084034 12.4067227,16.9882353 12.487395,16.9781513 Z M21.1394958,10.3428571 C19.6773109,10.789916 17.7344538,11.0218487 15.6638655,11.0218487 L15.5731092,11.0218487 C15.902521,11.2806723 16.1008403,11.6605042 16.1210084,12.087395 C18.1210084,12.0571429 20.0033613,11.8084034 21.4453782,11.3714286 C22.3327731,11.112605 23.0789916,10.7428571 23.6571429,10.3058824 L23.6571429,15.0890756 C23.3882353,15.5865546 22.5915966,16.2554622 21.1394958,16.702521 C19.6773109,17.1428571 17.7344538,17.3915966 15.6638655,17.3915966 C15.0857143,17.3915966 14.5277311,17.3613445 13.9798319,17.3210084 C13.8521008,17.7680672 13.5327731,18.1378151 13.102521,18.3260504 C13.9294118,18.4067227 14.7764706,18.4672269 15.6605042,18.4672269 C17.8285714,18.4672269 19.892437,18.2084034 21.4420168,17.7310924 C22.3294118,17.4722689 23.0756303,17.092437 23.6537815,16.6554622 L23.6537815,20.9109244 C23.6537815,21.7478992 22.7966387,22.4369748 21.1260504,22.9445378 C19.6504202,23.3815126 17.7008403,23.6336134 15.6504202,23.6336134 C13.6,23.6336134 11.6470588,23.3848739 10.1647059,22.9445378 C8.4907563,22.4369748 7.64705882,21.7478992 7.64705882,20.9109244 L7.64705882,20.1445378 C7.42857143,20.0840336 7.21680672,19.9865546 7.02857143,19.8352941 C5.99327731,19.0285714 4.56806723,18.6420168 3.54285714,18.4605042 C2.79663866,18.3193277 2.2487395,17.6739496 2.2487395,16.9176471 L2.2487395,14.1277311 L0.904201681,13.5294118 C0.366386555,13.2907563 0.0268907563,12.7731092 0.0268907563,12.1848739 C0.0268907563,11.5865546 0.366386555,11.0689076 0.904201681,10.8302521 L7.48571429,7.89915966 C7.53613445,7.8789916 7.58319328,7.85882353 7.64369748,7.8487395 L7.64369748,3.98319328 C8.18151261,4.41008403 8.91764706,4.77983193 9.87226891,5.05882353 C11.4453782,5.52605042 13.4957983,5.78487395 15.6571429,5.78487395 C17.8184874,5.78487395 19.8789916,5.52605042 21.4386555,5.05882353 C22.3764706,4.77983193 23.112605,4.4302521 23.6504202,4.00336134 L23.6504202,8.73613445 C23.3882353,9.23697479 22.5915966,9.90252101 21.1394958,10.3428571 Z" id="Learndata_3Masa"></path>
        </g>
    </g>
</svg>

<svg width="24" height="24" viewBox="0 0 24 24" xmlns="http://www.w3.org/2000/svg"><path d="M7.718 2.373c0-.01 0-.01-.01-.02.228-.656 1.075-1.234 2.46-1.664C11.64.25 13.593 0 15.654 0c2.07 0 4.01.249 5.475.69 1.463.446 2.29 1.024 2.468 1.71 0 0-.01.01-.01.02-.25.635-1.086 1.187-2.45 1.593-1.473.45-3.406.69-5.476.69-2.061 0-4.004-.24-5.476-.69-1.392-.416-2.239-.984-2.467-1.64zm.38 12.713l6.56-2.928-.197-.09h-.01l-3.446-1.527-2.928-1.284-.01.01-6.551 2.918 6.131 2.699.45.202zm4.39 1.892l.05-2.242-3.446 1.533-.406.181c-.192.091-.4.132-.599.132-.208 0-.406-.04-.605-.132l-3.734-1.663v2.124c.3.07.628.148.965.249.467.13.964.299 1.462.507a8.689 8.689 0 011.475.797c.05.04.098.057.158.1.05.031.101.061.148.102.121.09.28.09.39 0a5.88 5.88 0 01.857-.548c.239-.131.488-.26.747-.37.665-.29 1.354-.508 1.96-.649.03-.01.05-.01.08-.01.08-.02.168-.04.259-.06.077-.02.158-.04.238-.05zm8.651-6.635c-1.462.447-3.405.679-5.475.679h-.09c.329.259.527.639.547 1.065 2-.03 3.882-.279 5.324-.716.888-.258 1.634-.628 2.212-1.065v4.783c-.269.498-1.065 1.166-2.518 1.614-1.462.44-3.405.689-5.475.689-.578 0-1.136-.03-1.684-.071a1.565 1.565 0 01-.877 1.005c.826.08 1.673.141 2.558.141 2.168 0 4.231-.259 5.781-.736.887-.259 1.634-.639 2.212-1.076v4.256c0 .837-.857 1.526-2.528 2.034-1.476.437-3.425.689-5.476.689-2.05 0-4.003-.25-5.485-.69-1.674-.507-2.518-1.196-2.518-2.033v-.766a1.7 1.7 0 01-.618-.31c-1.036-.806-2.46-1.193-3.486-1.374a1.58 1.58 0 01-1.294-1.543v-2.79l-1.345-.599a1.46 1.46 0 01-.877-1.344c0-.598.34-1.116.877-1.355L7.486 7.9c.05-.021.097-.041.158-.051V3.983c.538.427 1.274.797 2.228 1.076 1.573.467 3.624.726 5.785.726s4.222-.259 5.782-.726c.937-.28 1.674-.629 2.211-1.056v4.733c-.262.501-1.058 1.167-2.51 1.607z" fill="#5CB615" fill-rule="nonzero"/></svg>
